X: 147
T: Açıl Ey Ömrümün Varı
C: (Anonim)
O: Turkey
F: http://compmusic.upf.edu/node/140
N: hicaz--turku--nimsofyan--acil_ey--
N: makam= hicaz
N: form= turku
N: usul= nimsofyan = 2/4
M: 2/4
L: 1/16
K: C _7/8B ^f ^c 
Q: 1/4=84
%%MIDI tuningsystem comma53
=f2ed fedc  | d2ed e4  | ABcd edec  | d=fed e2Az  | 
w:  ARANAĞME  |   |   |   | 
{g}fga2 {g}=fedc  | d2ed e2Az  | fga2 {g}=fedc  | \
w:   |   |   | 
d=fed cBA2  | 
w:   | 
z.a.a.a =fedc  | d=fed cBA2  | z.a.a.a =fedc  | 
w:   |   |   | 
d=fed cBA2  | e2e6  | e2e6  | e2e6  | e2{g}=fe ede2  | \
w:   |  A çıl   |  ey_ öm  |  rü mün   |  va *  rı   | 
e2e=f g2fe  | 
w:  a man    | 
{g}=fef2 e2f2  | eg=fe f4  | e^1/4fgf {a}g2=fe  | \
w:  *  *  *  *  Bâd_ ı   |  sa *  bah   |  ol  | 
d2dc d4  | 
w:   | 
c2d2 e2=fe  | d2cB A2g2  | =fedc d4  | d2z2 {A}d3d  | \
w:  ma *  dan   |   |  ben  *  yan *  dım    |  *  *  E şim_  | 
dedc .B2.c2  | 
w:  e *  şim  *  gel  gel    | 
z4 Ad2d  | dedc .B2.c2  | z4 eddc  | cBBA A4  | \
w:  Uğ *  run_  |  uğ *  run  *  gel  gel    |  Can  *  yol  |  da *  şım  *  gel    | 
A4 {g}fgag  | 
w:  *  *  SAZ  | 
a4 {g}fgag  | a6fg  | a2f2 a2f2  | a2fg efga  | \
w:   |   |   |   | 
gafg efga  | 
w:   | 
gafg eg=f2  | eg=fz egfe  | =f3/2e/dc d2ed  | 
w:   |   |   | 
e2z2 A2cd  | edec d=fed  | e2Az fga2  | \
w:   |   |   | 
{g}=fedc dfed  | 
w:   | 
cBA2 z.a.a.a  | {g}=fedc Bcde  | cBA2 z.a.a.a  | 
w:   |   |   | 
{g}=fedc dfed  | cBBA A4  | =f2ed fedc  | \
w:   |   |  ARANAĞME  | 
d2ed e4  | 
w:   | 
ABcd edec  | d=fed e2Az  | {g}fga2 {g}=fedc  | 
w:   |   |   | 
d2ed e2Az  | fga2 {g}=fedc  | d=fed cBA2  | \
w:   |   |   | 
z.a.a.a =fedc  | 
w:   | 
d=fed cBA2  | z.a.a.a =fedc  | d=fed cBA2  | 
w:   |   |   | 
e2e6  | e2e6  | e2e6  | e2{g}=fe ede2  | e2e=f g2fe  | \
w:  A çıl   |  ey_ öm  |  rü mün   |  va *  rı   |  a man    | 
{g}=fef2 e2f2  | 
w:  *  *  *  *  Bâd_ ı   | 
eg=fe f4  | e^1/4fgf {a}g2=fe  | d2dc d4  | \
w:  sa *  bah   |  ol  |   | 
c2d2 e2=fe  | 
w:  ma *  dan   | 
d2cB A2g2  | =fedc d4  | d2z2 {A}d3d  | \
w:   |  ben  *  yan *  dım    |  *  *  E şim_  | 
dedc .B2.c2  | z4 Ad2d  | 
w:  e *  şim  *  gel  gel    |  Uğ *  run_  | 
dedc .B2.c2  | z4 eddc  | cBBA A4  | A4 {g}fgag  | 
w:  uğ *  run  *  gel  gel    |  Can  *  yol  |  da *  şım  *  gel    |  *  *  SAZ  | 
a4 {g}fgag  | a6fg  | a2f2 a2f2  | a2fg efga  | \
w:   |   |   |   | 
gafg efga  | 
w:   | 
gafg eg=f2  | eg=fz egfe  | =f3/2e/dc d2ed  | 
w:   |   |   | 
e2z2 A2cd  | edec d=fed  | e2Az fga2  | \
w:   |   |   | 
{g}=fedc dfed  | 
w:   | 
cBA2 z.a.a.a  | {g}=fedc Bcde  | cBA2 z.a.a.a  | 
w:   |   |   | 
{g}=fedc dfed  | cBBA A4  | |


